public/section_one_grid.svg

<svg fill="none" height="1068" viewBox="0 0 1440 1068" width="1440" xmlns="http://www.w3.org/2000/svg" xmlns:xlink="http://www.w3.org/1999/xlink"><radialGradient id="a" cx="0" cy="0" gradientTransform="matrix(0 1532.88 -2554.3 0 647.827 -599.439)" gradientUnits="userSpaceOnUse" r="1"><stop offset="0" stop-color="#1e245c"/><stop offset="1" stop-color="#1e245c" stop-opacity=".67"/></radialGradient><path clip-rule="evenodd" d="m-64.1902.622438h-177.1878v177.187562h158.8311l18.3567-18.357zm18.8462 177.187562-18.1199-18.12v-159.067562h177.1869v177.187562zm-18.1199 18.576 17.85-17.85h159.3369v177.187h-177.1869zm-18.813-17.85 18.0867 18.087v159.1h-177.1878v-177.187zm-159.7231-178.536v177.914.518 177.395.519 177.394.519 177.395.519 177.395.518 177.914h177.9137.5185 177.3948.519 177.394.519 177.395.519 177.394.519 177.395.519 177.39.52 177.4.52 177.39.52 177.91v-177.914-177.913-.519-177.914-177.394-177.914-.518-177.914h-177.91-.52-177.39-.52-177.4-.52-177.39-.519-177.395-.519-177.394-.519-177.395-.519-177.394-.519-177.3948-.5185zm356.449.622438h177.188v177.187562h-177.188zm355.101 0h-177.187v177.187562h177.187zm.727 0h177.187v177.187562h-177.187zm355.1 0h-177.187v177.187562h177.187zm.726 0h177.187v177.187562h-177.187zm355.097 0h-177.18v177.187562h177.18zm.73 0h177.19v177.187562h-177.19zm355.1 0h-177.19v177.187562h177.19zm-1422.581 177.913562h177.188v177.187h-177.188zm355.101 0h-177.187v177.187h159.365l17.822-17.822zm18.264 177.187-17.537-17.537v-159.65h177.187v177.187zm-17.537 19.111 18.323-18.324-.06-.061h158.924v177.188h-177.187zm-19.275-18.385-.061.061 18.609 18.609v158.518h-177.187v-177.188zm374.375-177.913h-177.187v177.187h177.187zm.726 0h177.187v177.187h-177.187zm355.097 0h-177.18v177.187h177.18zm.73 0h177.19v128.03l-.3.301-48.86 48.856h-128.03zm127.3 177.913h-127.3v159.732l.6-.595 18.05 18.051h158.54v-127.183l-.3-.301-49.17-49.162-.48-.481zm49.89 49.044-48.98-48.983.06-.061h30.33l-.06.061 18.65 18.65zm.72.595v127.549h177.19v-177.188h-127.67l.06.061-.48.481zm48.56-49.639.06.061-48.62 48.616v-30.332l18.29-18.284-.06-.061zm.24-.726h128.39v-177.187h-177.19v128.397zm-48.8-47.829 47.83 47.829h-30.33l-17.5-17.496zm-.72-.367-48.2 48.196h30.33l17.87-17.862zm-177.19 245.122.6.596 18.83-18.83-.06-.052h157.82v177.187h-177.19zm-18.18-18.286-.05.052 17.5 17.509v159.626h-177.18v-177.187zm17.45-17.456-16.73 16.73h-160.45v-177.188h177.18zm-1422.578-160.458h177.1878v177.188h-177.1878zm355.101 0h-177.1869v177.188h177.1869zm.726 0h177.188v177.188h-177.188zm710.929 0h-177.188v177.188h177.188zm.725 0h177.187v177.188h-177.187zm-1067.481 177.914h177.1878v177.187h-177.1878zm355.101 0h-177.1869v177.187h128.2295l-.2304-.23.4807-.481 48.7071-48.708zm0 128.73-48.2264 48.227.2305.23h30.3331l-.2305-.23 17.8933-17.894zm.726 29.607v-30.333l.21-.21 49.163 49.163-.231.23h-30.332l.23-.23-18.83-18.83zm0 37.239.21.21 17.873-17.872h30.333l-48.206 48.205-.21-.21zm-17.6625-17.662 16.9365 16.937v30.333l-47.2696-47.27zm-31.2946 0h-128.9558v177.187h177.1869v-128.956zm48.9571 48.957v128.23h177.188v-177.187h-127.811l-48.686 48.686-.481.481zm50.104-49.684h127.084v-177.187h-177.188v127.043l.21-.21.481.48 49.163 49.163.48.481zm304.997-177.187h-177.187v177.187h177.187zm.727 0h177.187v177.187h-177.187zm355.1 0h-177.187v177.187h177.187zm.726 0h177.187v177.187h-177.187zm710.927 0h-177.19v177.187h177.19zm-1778.408 177.914h177.1878v177.187h-177.1878zm710.928 0h-177.187v177.187h177.187zm.727 0h177.187v177.187h-177.187zm355.1 0h-177.187v177.187h177.187zm.726 0h177.187v177.187h-177.187zm355.097 0h-177.18v177.187h177.18zm.73 0h177.19v177.187h-177.19zm355.1 0h-177.19v177.187h177.19zm-1778.408 177.913h177.1878v177.19h-177.1878zm355.101 0h-177.1869v177.19h177.1869zm.726 0h177.188v177.19h-177.188zm355.101 0h-177.187v177.19h177.187zm.727 0h177.187v177.19h-177.187zm355.1 0h-177.187v177.19h177.187zm.726 0h177.187v177.19h-177.187zm355.097 0h-177.18v177.19h177.18zm.73 0h177.19v177.19h-177.19zm355.1 0h-177.19v177.19h177.19z" fill="url(#a)" fill-opacity=".6" fill-rule="evenodd"/></svg>

<svg width="1440" height="1068" viewBox="0 0 1440 1068" fill="none" xmlns="http://www.w3.org/2000/svg">
<path fill-rule="evenodd" clip-rule="evenodd" d="M-64.1902 0.622438H-241.378V177.81H-82.5469L-64.1902 159.453V0.622438ZM-45.344 177.81L-63.4639 159.69V0.622438H113.723V177.81H-45.344ZM-63.4639 196.386L-45.6139 178.536H113.723V355.723H-63.4639V196.386ZM-82.2769 178.536L-64.1902 196.623V355.723H-241.378V178.536H-82.2769ZM-242 0V177.914V178.432V355.827V356.346V533.74V534.259V711.654V712.173V889.568V890.086V1068H-64.0863H-63.5678H113.827H114.346H291.74H292.259H469.654H470.173H647.567H648.086H825.481H826H1003.39H1003.91H1181.31H1181.83H1359.22H1359.74H1537.65L1537.65 890.086V712.173V711.654V533.74V356.346V178.432V177.914V0H1359.74H1359.22H1181.83H1181.31H1003.91H1003.39H826H825.481H648.086H647.567H470.173H469.654H292.259H291.74H114.346H113.827H-63.5678H-64.0863H-242ZM114.449 0.622438H291.637V177.81H114.449V0.622438ZM469.55 0.622438H292.363V177.81H469.55V0.622438ZM470.277 0.622438H647.464V177.81H470.277V0.622438ZM825.377 0.622438H648.19V177.81H825.377V0.622438ZM826.103 0.622438H1003.29V177.81H826.103V0.622438ZM1181.2 0.622438H1004.02V177.81H1181.2V0.622438ZM1181.93 0.622438H1359.12V177.81H1181.93V0.622438ZM1537.03 0.622438H1359.84V177.81H1537.03V0.622438ZM114.449 178.536H291.637V355.723H114.449V178.536ZM469.55 178.536H292.363V355.723H451.728L469.55 337.901V178.536ZM487.814 355.723L470.277 338.186V178.536H647.464V355.723H487.814ZM470.277 374.834L488.6 356.51L488.54 356.449H647.464V533.637H470.277V374.834ZM451.002 356.449L450.941 356.51L469.55 375.119V533.637H292.363V356.449H451.002ZM825.377 178.536H648.19V355.723H825.377V178.536ZM826.103 178.536H1003.29V355.723H826.103V178.536ZM1181.2 178.536H1004.02V355.723H1181.2V178.536ZM1181.93 178.536H1359.12V306.566L1358.82 306.867L1309.96 355.723H1181.93V178.536ZM1309.23 356.449H1181.93V516.181L1182.53 515.586L1200.58 533.637H1359.12V406.454L1358.82 406.153L1309.65 356.991L1309.17 356.51L1309.23 356.449ZM1359.12 405.493L1310.14 356.51L1310.2 356.449H1340.53L1340.47 356.51L1359.12 375.16V405.493ZM1359.84 406.088V533.637H1537.03V356.449H1409.36L1409.42 356.51L1408.94 356.991L1359.84 406.088ZM1408.4 356.449L1408.46 356.51L1359.84 405.126V374.794L1378.13 356.51L1378.07 356.449H1408.4ZM1408.64 355.723H1537.03V178.536H1359.84V306.933L1408.64 355.723ZM1359.84 307.894L1407.67 355.723H1377.34L1359.84 338.227V307.894ZM1359.12 307.527L1310.92 355.723H1341.25L1359.12 337.861V307.527ZM1181.93 552.649L1182.53 553.245L1201.36 534.415L1201.3 534.363H1359.12V711.55H1181.93V552.649ZM1163.75 534.363L1163.7 534.415L1181.2 551.924V711.55H1004.02V534.363H1163.75ZM1181.2 516.907L1164.47 533.637H1004.02V356.449H1181.2V516.907ZM-241.378 356.449H-64.1902V533.637H-241.378V356.449ZM113.723 356.449H-63.4639V533.637H113.723V356.449ZM114.449 356.449H291.637V533.637H114.449V356.449ZM825.378 356.449H648.19V533.637H825.378V356.449ZM826.103 356.449H1003.29V533.637H826.103V356.449ZM-241.378 534.363H-64.1902V711.55H-241.378V534.363ZM113.723 534.363H-63.4639V711.55H64.7656L64.5352 711.32L65.0159 710.839L113.723 662.131V534.363ZM113.723 663.093L65.4966 711.32L65.7271 711.55H96.0602L95.8297 711.32L113.723 693.426V663.093ZM114.449 692.7V662.367L114.659 662.157L163.822 711.32L163.591 711.55H133.259L133.489 711.32L114.659 692.49L114.449 692.7ZM114.449 729.939L114.659 730.149L132.532 712.277H162.865L114.659 760.482L114.449 760.272V729.939ZM96.7865 712.277L113.723 729.214V759.547L66.4534 712.277H96.7865ZM65.4919 712.277H-63.4639V889.464H113.723V760.508L65.4919 712.277ZM114.449 761.234V889.464H291.637V712.277H163.826L115.14 760.963L114.659 761.444L114.449 761.234ZM164.553 711.55H291.637V534.363H114.449V661.406L114.659 661.196L115.14 661.676L164.303 710.839L164.783 711.32L164.553 711.55ZM469.55 534.363H292.363V711.55H469.55V534.363ZM470.277 534.363H647.464V711.55H470.277V534.363ZM825.377 534.363H648.19V711.55H825.377V534.363ZM826.103 534.363H1003.29V711.55H826.103V534.363ZM1537.03 534.363H1359.84V711.55H1537.03V534.363ZM-241.378 712.277H-64.1902V889.464H-241.378V712.277ZM469.55 712.277H292.363V889.464H469.55V712.277ZM470.277 712.277H647.464V889.464H470.277V712.277ZM825.377 712.277H648.19V889.464H825.377V712.277ZM826.103 712.277H1003.29V889.464H826.103V712.277ZM1181.2 712.277H1004.02V889.464H1181.2V712.277ZM1181.93 712.277H1359.12V889.464H1181.93V712.277ZM1537.03 712.277H1359.84V889.464H1537.03V712.277ZM-241.378 890.19H-64.1902V1067.38H-241.378V890.19ZM113.723 890.19H-63.4639V1067.38H113.723V890.19ZM114.449 890.19H291.637V1067.38H114.449V890.19ZM469.55 890.19H292.363V1067.38H469.55V890.19ZM470.277 890.19H647.464V1067.38H470.277V890.19ZM825.377 890.19H648.19V1067.38H825.377V890.19ZM826.103 890.19H1003.29V1067.38H826.103V890.19ZM1181.2 890.19H1004.02V1067.38H1181.2V890.19ZM1181.93 890.19H1359.12V1067.38H1181.93V890.19ZM1537.03 890.19H1359.84V1067.38H1537.03V890.19Z" fill="url(#paint0_radial_1_5220)" fill-opacity="0.6"/>
<defs>
<radialGradient id="paint0_radial_1_5220" cx="0" cy="0" r="1" gradientUnits="userSpaceOnUse" gradientTransform="translate(647.827 -599.439) rotate(90) scale(1532.88 2554.3)">
<stop stop-color="#1E245C"/>
<stop offset="1" stop-color="#1E245C" stop-opacity="0.67"/>
</radialGradient>
</defs>
</svg>
